dist/intermediate-svg/traffic.svg

<?xml version="1.0" encoding="utf-8"?><svg width="24" height="24" fill="none" xmlns="http://www.w3.org/2000/svg" viewBox="0 0 24 24"><path d="M3 20h18" stroke="#333"/><path stroke="#0094FF" d="M4 15h4v3H4zM10 4h4v14h-4zM16 10h4v8h-4z"/></svg>

<?xml version="1.0" encoding="utf-8"?><svg width="24" height="24" fill="none" xmlns="http://www.w3.org/2000/svg" viewBox="0 0 24 24"><path d="M3 20.0001H21" stroke="#333"/><path stroke="#0094FF" d="M4 15H8V18H4zM10 4H14V18H10zM16 10H20V18H16z"/></svg>
